X:6544
T:The Blackbird
O:england
R:Set Dance
H:Learned from Mick Mulkere of Ennis
S:Josie Nugent,Clare (fiddle)
D:Private tape
N:As played
M:4/4
K:G
dc || BGBd (3cBc Bc | AGFG AB (3.c.B.A | d^cde dcAF | GAGF D2DE |
E {GFE}F2G A2(3.g.f.e | dzde dcAF | GAGF {E}D2CE | D2dc |
BzBd B {dcB}c2 B | AGFG AB(3.c.B.A | d^cde dcAF | GAGF D2DE |
E {GFE}F2G A2(3.g.f.e | dzde dcAF | GAGF {E}D2CE | D2de ||
{a}fede (3fef (3gfg  | abag fg(3.a.g.f | g2gf gbag | fg{a}fe d^cde |
{a}fede (3fef (3gfg  | abag fa(3.a.g.f | gagf d2(3.e.d.c | defg |
a3g fgaf | ga{a}ge e {afe}f2e | dcAG ABcd | ef(3.g.f.e aza2 |
ABAG FGAB | B {dcB}c2e d^cAF | GAGF {E}D2CE | D3e :||


